X: 8879
T: Cup Of Tea, The
R: reel
M: 4/4
K: Edorian
|:"Em"BAGF GEEF|"Em"GEBE GEE/E/E|"Em"BAGF GEEF|"D"FDAG FDD/D/D|
"Em"BAGF GEEF|"Em"GEBE GEEA|"Em"BAGF GABc|"D"dBAG FDD2:|
|:"D"d2e/f/g fdec|"Bm"d2eg fBB/B/B|"D"d2eg fdec|"A"dBAG "D"FDD2|
"D"d2e/f/g fdec|"D"dfaf "G"g2fg|"D"afge fdec|"D"dBAG FDD2:|
|:"D"FAdA FABA|"D"FAdA "A"FEE/E/E|"D"FAdA "G"BABc|"A"dBAG "D"FDD2|
"D"FAdA FABA|"D"FAdf "A"fee/e/e|"D"fdec "G"dBAF|"A"dBAG "D" FDD2:|

